assets/Rugby football/Flat/rugby_football_flat.svg

<svg width="32" height="32" viewBox="0 0 32 32" fill="none" xmlns="http://www.w3.org/2000/svg">
<path d="M29.0894 5.79163C33.6809 20.1377 20.1364 33.6735 5.7916 29.0915C4.42114 28.6513 3.35079 27.5809 2.91064 26.2103C-1.68089 11.8542 11.8636 -1.68155 26.2084 2.9104C27.5789 3.35059 28.6492 4.42105 29.0894 5.79163Z" fill="#F9C23C"/>
<path d="M9.85231 21.087L3.51611 27.4232C3.80696 27.8343 4.16547 28.1931 4.57637 28.4842L10.913 22.1477C12.8699 23.5928 15.6418 23.4292 17.4142 21.6569L21.6569 17.4142C23.4293 15.6418 23.5929 12.8699 22.1477 10.913L28.4831 4.57751C28.1921 4.16647 27.8335 3.8078 27.4225 3.51678L21.087 9.8523C19.1301 8.40717 16.3582 8.57079 14.5858 10.3432L10.3432 14.5858C8.5708 16.3582 8.40718 19.1301 9.85231 21.087Z" fill="#FF6723"/>
<path d="M18.5303 11.4697C18.2374 11.1768 17.7626 11.1768 17.4697 11.4697C17.1768 11.7626 17.1768 12.2374 17.4697 12.5303L19.4697 14.5303C19.7626 14.8232 20.2374 14.8232 20.5303 14.5303C20.8232 14.2374 20.8232 13.7626 20.5303 13.4697L18.5303 11.4697ZM15.4697 13.4697C15.7626 13.1768 16.2374 13.1768 16.5303 13.4697L18.5303 15.4697C18.8232 15.7626 18.8232 16.2374 18.5303 16.5303C18.2374 16.8232 17.7626 16.8232 17.4697 16.5303L15.4697 14.5303C15.1768 14.2374 15.1768 13.7626 15.4697 13.4697ZM14.5303 15.4697C14.2374 15.1768 13.7626 15.1768 13.4697 15.4697C13.1768 15.7626 13.1768 16.2374 13.4697 16.5303L15.4697 18.5303C15.7626 18.8232 16.2374 18.8232 16.5303 18.5303C16.8232 18.2374 16.8232 17.7626 16.5303 17.4697L14.5303 15.4697ZM12.5303 17.4697C12.2374 17.1768 11.7626 17.1768 11.4697 17.4697C11.1768 17.7626 11.1768 18.2374 11.4697 18.5303L13.4697 20.5303C13.7626 20.8232 14.2374 20.8232 14.5303 20.5303C14.8232 20.2374 14.8232 19.7626 14.5303 19.4697L12.5303 17.4697Z" fill="#FFDEA7"/>
</svg>

<svg xmlns="http://www.w3.org/2000/svg" width="32" height="32" fill="none"><path fill="#F9C23C" d="M29.09 5.792c4.59 14.346-8.954 27.881-23.298 23.3A4.453 4.453 0 0 1 2.91 26.21c-4.592-14.356 8.953-27.892 23.297-23.3 1.37.44 2.441 1.511 2.881 2.882Z"/><path fill="#FF6723" d="m9.852 21.087-6.336 6.336c.291.411.65.77 1.06 1.061l6.337-6.336a5.001 5.001 0 0 0 6.501-.491l4.243-4.243a5.001 5.001 0 0 0 .49-6.501l6.336-6.335a4.45 4.45 0 0 0-1.06-1.061l-6.336 6.335a5.001 5.001 0 0 0-6.501.491l-4.243 4.243a5.001 5.001 0 0 0-.49 6.501Z"/><path fill="#FFDEA7" d="M18.53 11.47a.75.75 0 1 0-1.06 1.06l2 2a.75.75 0 1 0 1.06-1.06l-2-2Zm-3.06 2a.75.75 0 0 1 1.06 0l2 2a.75.75 0 1 1-1.06 1.06l-2-2a.75.75 0 0 1 0-1.06Zm-.94 2a.75.75 0 1 0-1.06 1.06l2 2a.75.75 0 1 0 1.06-1.06l-2-2Zm-2 2a.75.75 0 1 0-1.06 1.06l2 2a.75.75 0 1 0 1.06-1.06l-2-2Z"/></svg>
